fs/note_20_filled.svg

<svg viewBox="0 0 20 20" fill="none" xmlns="http://www.w3.org/2000/svg" height="1em" width="1em">
  <path d="M14 3C15.5977 3 16.9037 4.24892 16.9949 5.82373L17 6V10H13L12.8237 10.0051C11.3072 10.093 10.093 11.3072 10.0051 12.8237L10 13V17H6C4.40232 17 3.09634 15.7511 3.00509 14.1763L3 14V6C3 4.40232 4.24892 3.09634 5.82373 3.00509L6 3H14ZM16.9007 11.001C16.8232 11.2376 16.7018 11.459 16.5416 11.6528L16.4142 11.7929L11.7929 16.4142C11.5687 16.6384 11.2968 16.8039 11.001 16.9007L11 13L11.0055 12.8507C11.078 11.8676 11.8612 11.0821 12.8433 11.006L13 11L16.9007 11.001Z" fill="#212121"/>
</svg>

<svg viewBox="0 0 20 20" fill="none" xmlns="http://www.w3.org/2000/svg" height="1em" width="1em">
  <path d="M14 3a3 3 0 0 1 2.995 2.824L17 6v4h-4l-.176.005a3 3 0 0 0-2.819 2.819L10 13v4H6a3 3 0 0 1-2.995-2.824L3 14V6a3 3 0 0 1 2.824-2.995L6 3h8Zm2.9 8.001a2 2 0 0 1-.358.652l-.128.14-4.621 4.621c-.224.224-.496.39-.792.487L11 13l.005-.15a2 2 0 0 1 1.838-1.844L13 11l3.9.001Z" fill="#212121"/>
</svg>
